library/css/icons/svgs/fi-compass.svg

<svg xmlns="http://www.w3.org/2000/svg" width="100" height="100" viewBox="0 0 100 100"><g fill="#231F20"><path d="M50 12.5c-20.712 0-37.5 16.793-37.5 37.502 0 20.71 16.788 37.498 37.5 37.498s37.5-16.788 37.5-37.498c0-20.709-16.788-37.502-37.5-37.502zm0 65.06c-15.199 0-27.56-12.362-27.56-27.558 0-15.195 12.361-27.562 27.56-27.562 15.198 0 27.56 12.367 27.56 27.562 0 15.196-12.362 27.558-27.56 27.558zM64.674 32.69l-19.545 11.648c-.267.156-.488.379-.646.641l-11.793 19.691c-.442.737-.32 1.684.291 2.285l.078.078c.359.354.833.539 1.311.539.328 0 .66-.088.956-.268l19.69-11.789c.262-.16.485-.383.641-.645l11.648-19.545c.437-.729.245-1.738-.349-2.345-.602-.61-1.546-.736-2.282-.29z"/></g></svg>

<?xml version="1.0" encoding="utf-8"?>
<!-- Generator: Adobe Illustrator 17.0.0, SVG Export Plug-In . SVG Version: 6.00 Build 0)  -->
<!DOCTYPE svg PUBLIC "-//W3C//DTD SVG 1.1//EN" "http://www.w3.org/Graphics/SVG/1.1/DTD/svg11.dtd">
<svg version="1.1" id="Layer_1" xmlns="http://www.w3.org/2000/svg" xmlns:xlink="http://www.w3.org/1999/xlink" x="0px" y="0px"
	 width="100px" height="100px" viewBox="0 0 100 100" enable-background="new 0 0 100 100" xml:space="preserve">
<g>
	<path fill="#231F20" d="M50,12.5c-20.712,0-37.5,16.793-37.5,37.502C12.5,70.712,29.288,87.5,50,87.5
		c20.712,0,37.5-16.788,37.5-37.498C87.5,29.293,70.712,12.5,50,12.5z M50,77.56c-15.199,0-27.56-12.362-27.56-27.558
		C22.44,34.807,34.801,22.44,50,22.44c15.198,0,27.56,12.367,27.56,27.562C77.56,65.198,65.198,77.56,50,77.56z"/>
	<path fill="#231F20" d="M64.674,32.69L45.129,44.338c-0.267,0.156-0.488,0.379-0.646,0.641L32.69,64.67
		c-0.442,0.737-0.32,1.684,0.291,2.285l0.078,0.078c0.359,0.354,0.833,0.539,1.311,0.539c0.328,0,0.66-0.088,0.956-0.268
		l19.69-11.789c0.262-0.16,0.485-0.383,0.641-0.645l11.648-19.545c0.437-0.729,0.245-1.738-0.349-2.345
		C66.354,32.37,65.41,32.244,64.674,32.69z"/>
</g>
</svg>
